;FLAVOR:RepRap
;TIME:5227
;Filament used: 3.51714m
;Layer height: 0.2
;Generated with Cura_SteamEngine 2.6.2
M190 S60
M104 S210
M109 S210
G21 ;metric values
G90 ;absolute positioning
M82 ;set extruder to absolute mode
M107 ;start with the fan off
G28 X0 Y0 ;move X/Y to min endstops
G28 Z0 ;move Z to min endstops
G0 X1 Y0 Z0.15 F9000 ; Move in 1mm from edge and up [z] 0.15mm
G92 E0 ;zero the extruded length
G1 F200 E3 ;extrude 3mm of feed stock
G92 E0 ;zero the extruded length again
G1 F9000
M117 Printing...
G5
;LAYER_COUNT:122
;LAYER:0
M107
M205 X30
G0 F3000 X81.86 Y70.089 Z0.3
G0 X81.476 Y70.569
M205 X8
;TYPE:SKIRT
G1 F1800 X81.86 Y70.089 E0.02855
G1 X82.302 Y69.664 E0.05703
G1 X82.795 Y69.3 E0.0855
G1 X83.104 Y69.118 E0.10215
G1 X83.512 Y68.898 E0.12368
G1 X84.069 Y68.643 E0.15214
G1 X84.656 Y68.462 E0.18067
G1 X85.26 Y68.359 E0.20913
G1 X85.741 Y68.334 E0.2315
G1 X123.287 Y68.29 E1.97543
G1 X123.564 Y68.298 E1.9883
G1 X124.572 Y68.356 E2.0352
G1 X125.18 Y68.431 E2.06365
G1 X125.774 Y68.584 E2.09214
G1 X126.343 Y68.814 E2.12065
G1 X126.857 Y69.102 E2.14801
G1 X127.292 Y69.383 E2.17207
G1 X127.784 Y69.748 E2.20052
G1 X128.225 Y70.175 E2.22903
G1 X128.607 Y70.655 E2.25753
G1 X128.968 Y71.271 E2.29069
G1 X129.204 Y71.754 E2.31566
G1 X129.437 Y72.322 E2.34418
G1 X129.594 Y72.915 E2.37267
G1 X129.682 Y73.82 E2.4149
G1 X129.705 Y135.675 E5.28793
G1 X129.686 Y136.104 E5.30788
G1 X129.628 Y136.741 E5.33758
G1 X129.532 Y137.347 E5.36608
G1 X129.359 Y137.936 E5.3946
G1 X129.037 Y138.632 E5.43022
G1 X128.851 Y138.961 E5.44777
G1 X128.515 Y139.474 E5.47625
G1 X128.115 Y139.94 E5.50478
G1 X127.658 Y140.349 E5.53327
G1 X127.328 Y140.585 E5.55211
G1 X126.863 Y140.889 E5.57791
G1 X126.329 Y141.191 E5.60641
G1 X125.76 Y141.42 E5.6349
G1 X125.166 Y141.574 E5.6634
G1 X124.486 Y141.653 E5.6952
G1 X123.237 Y141.706 E5.75326
G1 X123.036 Y141.71 E5.7626
G1 X86.326 Y141.705 E7.4677
G1 X85.545 Y141.64 E7.5041
G1 X84.725 Y141.502 E7.54272
G1 X84.128 Y141.361 E7.57121
G1 X83.555 Y141.143 E7.59969
G1 X83.014 Y140.853 E7.6282
G1 X82.516 Y140.495 E7.65669
G1 X81.979 Y139.977 E7.69134
G1 X81.558 Y139.501 E7.72086
G1 X81.182 Y139.016 E7.74936
G1 X80.873 Y138.487 E7.77782
G1 X80.548 Y137.642 E7.81987
G1 X80.483 Y137.408 E7.83115
G1 X80.357 Y136.807 E7.85967
G1 X80.311 Y136.148 E7.89036
G1 X80.295 Y74.356 E10.76046
G1 X80.323 Y73.84 E10.78446
G1 X80.403 Y73.113 E10.81843
G1 X80.51 Y72.509 E10.84692
G1 X80.694 Y71.923 E10.87545
G1 X80.953 Y71.367 E10.90394
G1 X81.222 Y70.933 E10.92766
G1 X81.476 Y70.569 E10.94827
M205 X30
G0 F3000 X81.788 Y70.786
M205 X8
G1 F1800 X82.157 Y70.328 E10.97559
G1 X82.584 Y69.924 E11.0029
G1 X83.284 Y69.453 E11.04208
G1 X83.692 Y69.233 E11.06361
G1 X84.227 Y68.989 E11.09093
G1 X84.791 Y68.821 E11.11826
G1 X85.372 Y68.73 E11.14558
G1 X85.742 Y68.714 E11.16278
G1 X123.288 Y68.67 E12.90671
G1 X123.542 Y68.677 E12.91851
G1 X124.55 Y68.735 E12.96541
G1 X125.133 Y68.809 E12.9927
G1 X125.702 Y68.961 E13.02006
G1 X126.244 Y69.188 E13.04735
G1 X126.651 Y69.421 E13.06913
G1 X127.086 Y69.702 E13.09319
G1 X127.557 Y70.054 E13.1205
G1 X127.976 Y70.466 E13.14779
G1 X128.335 Y70.932 E13.17512
G1 X128.626 Y71.438 E13.20223
G1 X128.862 Y71.921 E13.2272
G1 X129.084 Y72.466 E13.25453
G1 X129.23 Y73.036 E13.28186
G1 X129.302 Y73.82 E13.31843
G1 X129.325 Y135.675 E16.19146
G1 X129.307 Y136.07 E16.20982
G1 X129.249 Y136.707 E16.23953
G1 X129.156 Y137.287 E16.26682
G1 X128.985 Y137.85 E16.29414
G1 X128.706 Y138.445 E16.32467
G1 X128.52 Y138.774 E16.34222
G1 X128.197 Y139.265 E16.36952
G1 X127.81 Y139.708 E16.39684
G1 X127.366 Y140.094 E16.42417
G1 X127.12 Y140.267 E16.43814
G1 X126.655 Y140.571 E16.46394
G1 X126.142 Y140.859 E16.49127
G1 X125.595 Y141.074 E16.51857
G1 X125.024 Y141.214 E16.54588
G1 X124.47 Y141.273 E16.57175
G1 X123.221 Y141.326 E16.62982
G1 X123.036 Y141.33 E16.63841
G1 X86.326 Y141.325 E18.34351
G1 X85.608 Y141.265 E18.37698
G1 X84.788 Y141.127 E18.4156
G1 X84.216 Y140.99 E18.44292
G1 X83.668 Y140.777 E18.47023
G1 X83.154 Y140.492 E18.49753
G1 X82.683 Y140.139 E18.52487
G1 X82.264 Y139.726 E18.55219
G1 X81.843 Y139.25 E18.58171
G1 X81.484 Y138.784 E18.60903
G1 X81.191 Y138.273 E18.63639
G1 X80.914 Y137.54 E18.67279
G1 X80.849 Y137.306 E18.68407
G1 X80.73 Y136.73 E18.71139
G1 X80.691 Y136.148 E18.73848
G1 X80.675 Y74.356 E21.60858
G1 X80.701 Y73.881 E21.63068
G1 X80.781 Y73.154 E21.66465
G1 X80.885 Y72.575 E21.69197
G1 X81.066 Y72.016 E21.71926
G1 X81.322 Y71.486 E21.7466
G1 X81.534 Y71.15 E21.76505
G1 X81.788 Y70.786 E21.78567
M205 X30
G0 F3000 X81.846 Y71.368
M205 X8
G1 F1800 X82.1 Y71.004 E21.80629
G1 X82.453 Y70.567 E21.83238
G1 X82.865 Y70.185 E21.85848
G1 X83.464 Y69.787 E21.89188
G1 X83.872 Y69.567 E21.91341
G1 X84.384 Y69.336 E21.9395
G1 X84.924 Y69.181 E21.96559
G1 X85.742 Y69.094 E22.0038
G1 X123.288 Y69.05 E23.74773
G1 X123.52 Y69.057 E23.75851
G1 X124.528 Y69.115 E23.80541
G1 X125.085 Y69.187 E23.8315
G1 X125.626 Y69.337 E23.85757
G1 X126.141 Y69.563 E23.8837
G1 X126.444 Y69.74 E23.89999
G1 X126.879 Y70.021 E23.92405
G1 X127.328 Y70.359 E23.95015
G1 X127.725 Y70.757 E23.97626
G1 X128.061 Y71.207 E24.00235
G1 X128.285 Y71.605 E24.02356
G1 X128.521 Y72.088 E24.04853
G1 X128.731 Y72.609 E24.07462
G1 X128.865 Y73.154 E24.10069
G1 X128.922 Y73.821 E24.13178
G1 X128.945 Y135.676 E27.00481
G1 X128.929 Y136.035 E27.0215
G1 X128.871 Y136.672 E27.05121
G1 X128.78 Y137.227 E27.07733
G1 X128.612 Y137.763 E27.10342
G1 X128.376 Y138.258 E27.12889
G1 X128.19 Y138.587 E27.14645
G1 X127.879 Y139.055 E27.17255
G1 X127.505 Y139.474 E27.19864
G1 X126.912 Y139.949 E27.23393
G1 X126.447 Y140.253 E27.25973
G1 X125.957 Y140.526 E27.28578
G1 X125.432 Y140.727 E27.31189
G1 X124.884 Y140.851 E27.33799
G1 X124.453 Y140.893 E27.35811
G1 X123.204 Y140.946 E27.41617
G1 X123.036 Y140.95 E27.42398
G1 X86.326 Y140.945 E29.12907
G1 X85.671 Y140.89 E29.1596
G1 X84.851 Y140.752 E29.19823
G1 X84.306 Y140.62 E29.22427
G1 X83.784 Y140.411 E29.25039
G1 X83.297 Y140.131 E29.27648
G1 X82.855 Y139.784 E29.30258
G1 X82.548 Y139.474 E29.32285
G1 X82.127 Y138.998 E29.35236
G1 X81.786 Y138.552 E29.37844
G1 X81.511 Y138.062 E29.40454
G1 X81.28 Y137.438 E29.43545
G1 X81.215 Y137.204 E29.44673
G1 X81.104 Y136.654 E29.47279
G1 X81.071 Y136.148 E29.49634
G1 X81.055 Y74.356 E32.36644
G1 X81.079 Y73.923 E32.38658
G1 X81.159 Y73.196 E32.42055
G1 X81.26 Y72.643 E32.44667
G1 X81.438 Y72.111 E32.47272
G1 X81.69 Y71.609 E32.49881
G1 X81.846 Y71.368 E32.51215
M205 X30
G0 F3000 X82.411 Y71.221
M205 X8
G1 F1800 X82.749 Y70.807 E32.53697
G1 X83.144 Y70.448 E32.56176
G1 X83.645 Y70.122 E32.58953
G1 X84.053 Y69.902 E32.61106
G1 X84.54 Y69.684 E32.63584
G1 X85.055 Y69.542 E32.66065
G1 X85.743 Y69.474 E32.69276
G1 X123.289 Y69.43 E34.43669
G1 X123.498 Y69.436 E34.4464
G1 X124.506 Y69.494 E34.4933
G1 X125.035 Y69.564 E34.51809
G1 X125.548 Y69.713 E34.5429
G1 X126.238 Y70.059 E34.57875
G1 X126.673 Y70.34 E34.60281
G1 X127.099 Y70.663 E34.62764
G1 X127.472 Y71.045 E34.65244
G1 X127.783 Y71.479 E34.67724
G1 X127.944 Y71.772 E34.69276
G1 X128.18 Y72.255 E34.71773
G1 X128.377 Y72.751 E34.74252
G1 X128.499 Y73.271 E34.76733
G1 X128.542 Y73.821 E34.79295
G1 X128.565 Y135.676 E37.66598
G1 X128.55 Y136.001 E37.68109
G1 X128.492 Y136.638 E37.7108
G1 X128.404 Y137.164 E37.73557
G1 X128.239 Y137.672 E37.76038
G1 X128.045 Y138.071 E37.78099
G1 X127.859 Y138.4 E37.79854
G1 X127.562 Y138.844 E37.82336
G1 X127.202 Y139.239 E37.84818
G1 X126.705 Y139.631 E37.87758
G1 X126.24 Y139.935 E37.90338
G1 X125.772 Y140.193 E37.92821
G1 X125.271 Y140.378 E37.95301
G1 X124.748 Y140.487 E37.97783
G1 X124.437 Y140.514 E37.99233
G1 X123.188 Y140.567 E38.05039
G1 X123.037 Y140.57 E38.05741
G1 X86.327 Y140.565 E39.7625
G1 X85.735 Y140.515 E39.7901
G1 X84.915 Y140.377 E39.82872
G1 X84.396 Y140.25 E39.85354
G1 X83.902 Y140.046 E39.87836
G1 X83.445 Y139.771 E39.90314
G1 X83.033 Y139.431 E39.92795
G1 X82.833 Y139.222 E39.94139
G1 X82.412 Y138.746 E39.9709
G1 X82.089 Y138.321 E39.9957
G1 X81.833 Y137.852 E40.02051
G1 X81.646 Y137.336 E40.04601
G1 X81.581 Y137.102 E40.05729
G1 X81.477 Y136.579 E40.08205
G1 X81.451 Y136.148 E40.10211
G1 X81.435 Y74.356 E42.97221
G1 X81.456 Y73.965 E42.9904
G1 X81.536 Y73.238 E43.02437
G1 X81.634 Y72.713 E43.04918
G1 X81.81 Y72.208 E43.07402
G1 X82.157 Y71.585 E43.10714
G1 X82.411 Y71.221 E43.12776
M205 X30
G0 F3000 X82.723 Y71.439
M205 X8
G1 F1800 X83.044 Y71.049 E43.15122
G1 X83.422 Y70.714 E43.17468
G1 X83.825 Y70.456 E43.1969
G1 X84.233 Y70.236 E43.21843
G1 X84.695 Y70.033 E43.24187
G1 X85.183 Y69.904 E43.26532
G1 X85.743 Y69.854 E43.29143
G1 X123.289 Y69.81 E45.03536
G1 X123.476 Y69.815 E45.04405
G1 X124.484 Y69.873 E45.09095
G1 X124.984 Y69.942 E45.11439
G1 X125.467 Y70.089 E45.13784
G1 X126.032 Y70.378 E45.16732
G1 X126.467 Y70.659 E45.19137
G1 X126.868 Y70.966 E45.21483
G1 X127.216 Y71.332 E45.23829
G1 X127.602 Y71.939 E45.2717
G1 X127.838 Y72.422 E45.29667
G1 X128.023 Y72.891 E45.32008
G1 X128.132 Y73.384 E45.34354
G1 X128.162 Y73.821 E45.36388
G1 X128.185 Y135.676 E48.23691
G1 X128.172 Y135.966 E48.25039
G1 X128.114 Y136.603 E48.2801
G1 X128.028 Y137.101 E48.30358
G1 X127.866 Y137.579 E48.32702
G1 X127.714 Y137.884 E48.34285
G1 X127.528 Y138.213 E48.3604
G1 X127.246 Y138.631 E48.38382
G1 X126.901 Y139 E48.40728
G1 X126.497 Y139.313 E48.43102
G1 X126.032 Y139.617 E48.45683
G1 X125.589 Y139.859 E48.48027
G1 X125.113 Y140.028 E48.50373
G1 X124.421 Y140.134 E48.53625
G1 X123.172 Y140.187 E48.59432
G1 X123.037 Y140.19 E48.60059
G1 X86.327 Y140.185 E50.30569
G1 X85.798 Y140.141 E50.33034
G1 X84.978 Y140.003 E50.36896
G1 X84.488 Y139.88 E50.39243
G1 X84.024 Y139.681 E50.41588
G1 X83.597 Y139.412 E50.43932
G1 X83.118 Y138.97 E50.46959
G1 X82.697 Y138.494 E50.49911
G1 X82.393 Y138.091 E50.52256
G1 X82.157 Y137.645 E50.54599
G1 X82.012 Y137.235 E50.56619
G1 X81.947 Y137.001 E50.57747
G1 X81.851 Y136.505 E50.60094
G1 X81.831 Y136.148 E50.61755
G1 X81.815 Y74.356 E53.48765
G1 X81.834 Y74.006 E53.50393
G1 X81.914 Y73.279 E53.5379
G1 X82.009 Y72.783 E53.56136
G1 X82.181 Y72.309 E53.58478
G1 X82.469 Y71.803 E53.61182
G1 X82.723 Y71.439 E53.63244
M205 X30
G1 F3600 E48.63244
G0 F3000 X84.351 Y73.763
G0 X85.209 Y74.013
G0 X104.04 Y86.086
G0 X104.687 Y91.533
G0 X123.984 Y103.711
G0 X123.987 Y103.81
M205 X8
;TYPE:WALL-OUTER
G1 F3600 E53.63244
G1 F1800 X86.013 Y103.81 E55.39625
G1 X85.886 Y103.801 E55.40216
G1 X85.767 Y103.775 E55.40782
G1 X85.666 Y103.738 E55.41281
G1 X85.561 Y103.68 E55.41838
G1 X85.467 Y103.61 E55.42383
G1 X85.39 Y103.533 E55.42889
G1 X85.32 Y103.439 E55.43433
G1 X85.262 Y103.334 E55.4399
G1 X85.225 Y103.233 E55.4449
G1 X85.199 Y103.114 E55.45056
G1 X85.19 Y102.987 E55.45647
G1 X85.19 Y74.013 E56.80225
G1 X85.199 Y73.886 E56.80816
G1 X85.225 Y73.767 E56.81382
G1 X85.262 Y73.666 E56.81881
G1 X85.32 Y73.561 E56.82439
G1 X85.39 Y73.467 E56.82983
G1 X85.467 Y73.39 E56.83489
G1 X85.561 Y73.32 E56.84033
G1 X85.666 Y73.262 E56.8459
G1 X85.767 Y73.225 E56.8509
G1 X85.886 Y73.199 E56.85656
G1 X86.013 Y73.19 E56.86247
G1 X123.987 Y73.19 E58.62628
G1 X124.114 Y73.199 E58.63219
G1 X124.233 Y73.225 E58.63785
G1 X124.334 Y73.262 E58.64285
G1 X124.439 Y73.32 E58.64842
G1 X124.533 Y73.39 E58.65386
G1 X124.61 Y73.467 E58.65892
G1 X124.68 Y73.561 E58.66436
G1 X124.738 Y73.666 E58.66993
G1 X124.775 Y73.767 E58.67493
G1 X124.801 Y73.886 E58.68059
G1 X124.81 Y74.013 E58.6865
G1 X124.81 Y102.987 E60.03228
G1 X124.801 Y103.114 E60.03819
G1 X124.775 Y103.233 E60.04385
G1 X124.738 Y103.334 E60.04885
G1 X124.68 Y103.439 E60.05442
G1 X124.61 Y103.533 E60.05986
G1 X124.533 Y103.61 E60.06492
G1 X124.439 Y103.68 E60.07036
G1 X124.334 Y103.738 E60.07594
G1 X124.233 Y103.775 E60.08093
G1 X124.114 Y103.801 E60.08659
G1 X123.987 Y103.81 E60.0925
M205 X30
G0 F3000 X123.984 Y103.711
G0 X93.582 Y91.575
G0 X93.512 Y91.505
M205 X8
G1 F1800 X93.512 Y86.114 E60.3429
G1 X92.294 Y86.114 E60.39948
G1 X91.148 Y89.453 E60.56345
G1 X90.966 Y89.983 E60.58947
G1 X90.789 Y89.451 E60.60317
G1 X89.675 Y86.114 E60.76657
G1 X88.35 Y86.114 E60.82812
G1 X88.35 Y91.505 E61.07852
G1 X89.369 Y91.505 E61.12585
G1 X89.369 Y89.347 E61.22608
G1 X89.369 Y89.346 E61.22613
G1 X89.369 Y88.198 E61.27945
G1 X89.738 Y89.286 E61.30648
G1 X90.493 Y91.505 E61.41535
G1 X91.362 Y91.505 E61.45571
G1 X92.124 Y89.31 E61.56364
G1 X92.493 Y88.246 E61.61594
G1 X92.493 Y89.372 E61.64247
G1 X92.493 Y89.373 E61.64251
G1 X92.493 Y91.505 E61.74154
G1 X93.512 Y91.505 E61.78887
M205 X30
G0 F3000 X93.582 Y91.575
G0 X98.676 Y91.59
G0 X98.624 Y91.505
M205 X8
G1 F1800 X98.669 Y91.415 E61.79354
G1 X98.729 Y91.296 E61.79973
G1 X98.644 Y91.18 E61.80641
G1 X98.496 Y90.979 E61.81801
G1 X96.565 Y88.356 E61.96929
G1 X98.496 Y86.49 E62.09402
G1 X98.529 Y86.458 E62.09615
G1 X98.639 Y86.352 E62.10325
G1 X98.586 Y86.22 E62.10985
G1 X98.543 Y86.114 E62.11517
G1 X98.39 Y86.114 E62.1212
G1 X97.437 Y86.114 E62.16547
G1 X95.541 Y88.008 E62.28994
G1 X95.217 Y88.331 E62.31119
G1 X95.217 Y87.874 E62.32262
G1 X95.217 Y87.873 E62.32267
G1 X95.217 Y86.114 E62.40437
G1 X94.174 Y86.114 E62.45281
G1 X94.174 Y91.505 E62.70321
G1 X95.217 Y91.505 E62.75166
G1 X95.217 Y89.659 E62.8374
G1 X95.662 Y89.226 E62.86624
G1 X95.663 Y89.225 E62.86631
G1 X95.821 Y89.071 E62.87655
G1 X95.948 Y89.252 E62.88292
G1 X97.533 Y91.505 E63.01087
G1 X98.479 Y91.505 E63.05481
G1 X98.624 Y91.505 E63.06154
M205 X30
G0 F3000 X98.676 Y91.59
G0 X104.082 Y91.575
G0 X104.012 Y91.505
M205 X8
G1 F1800 X104.012 Y86.114 E63.31194
G1 X102.794 Y86.114 E63.36852
G1 X101.648 Y89.453 E63.53249
G1 X101.466 Y89.983 E63.55851
G1 X101.289 Y89.451 E63.57221
G1 X100.175 Y86.114 E63.73561
G1 X98.85 Y86.114 E63.79716
G1 X98.85 Y86.352 E63.80053
G1 X98.85 Y86.551 E63.80977
G1 X98.85 Y90.902 E64.01186
G1 X98.85 Y91.296 E64.03016
G1 X98.85 Y91.505
G1 X99.869 Y91.505 E64.07749
G1 X99.869 Y89.347 E64.17773
G1 X99.869 Y89.346 E64.17777
G1 X99.869 Y88.198 E64.2311
G1 X100.238 Y89.286 E64.25813
G1 X100.993 Y91.505 E64.367
G1 X101.862 Y91.505 E64.40736
G1 X102.624 Y89.31 E64.51528
G1 X102.993 Y88.246 E64.56759
G1 X102.993 Y89.372 E64.59411
G1 X102.993 Y89.373 E64.59416
G1 X102.993 Y91.505 E64.69318
G1 X104.012 Y91.505 E64.74051
M205 X30
G0 F3000 X104.082 Y91.575
G0 X108.905 Y91.575
G0 X108.835 Y91.505
M205 X8
G1 F1800 X108.835 Y90.534 E64.78561
G1 X105.758 Y90.534 E64.92853
G1 X105.758 Y89.208 E64.99012
G1 X108.53 Y89.208 E65.11888
G1 X108.53 Y88.24 E65.16384
G1 X105.758 Y88.24 E65.29259
G1 X105.758 Y87.086 E65.34619
G1 X108.718 Y87.086 E65.48368
G1 X108.718 Y86.114 E65.52883
G1 X104.715 Y86.114 E65.71476
G1 X104.715 Y91.505 E65.96516
G1 X108.835 Y91.505 E66.15652
M205 X30
G0 F3000 X108.905 Y91.575
G0 X112.429 Y91.575
G0 X112.359 Y91.505
M205 X8
G1 F1800 X112.359 Y89.468 E66.25114
G1 X113.457 Y89.468 E66.30213
G1 X113.895 Y89.453 E66.32249
G1 X114.329 Y89.377 E66.34296
G1 X114.563 Y89.283 E66.35467
G1 X115.054 Y88.977 E66.38154
G1 X115.218 Y88.755 E66.39436
G1 X115.348 Y88.541 E66.40599
G1 X115.438 Y88.325 E66.41686
G1 X115.521 Y87.758 E66.44348
G1 X115.481 Y87.361 E66.46201
G1 X115.352 Y86.991 E66.48021
G1 X115.249 Y86.812 E66.4898
G1 X115.127 Y86.647 E66.49933
G1 X114.885 Y86.428 E66.51449
G1 X114.548 Y86.256 E66.53207
G1 X114.188 Y86.164 E66.54933
G1 X113.402 Y86.114 E66.58591
G1 X111.315 Y86.114 E66.68284
G1 X111.315 Y91.505 E66.93324
G1 X112.359 Y91.505 E66.98174
M205 X30
G0 F3000 X112.429 Y91.575
G0 X117.21 Y91.575
G0 X117.14 Y91.505
M205 X8
G1 F1800 X117.14 Y86.114 E67.23214
G1 X116.097 Y86.114 E67.28058
G1 X116.097 Y91.505 E67.53098
G1 X117.14 Y91.505 E67.57943
M205 X30
G0 F3000 X117.21 Y91.575
G0 X122.71 Y91.591
G0 X122.659 Y91.505
M205 X8
G1 F1800 X122.767 Y91.308 E67.58986
G1 X122.691 Y91.189 E67.59642
G1 X121.831 Y89.844 E67.67057
G1 X121.562 Y89.475 E67.69178
G1 X121.356 Y89.254 E67.70581
G1 X121.289 Y89.183 E67.71035
G1 X121.25 Y89.142 E67.71298
G1 X121.215 Y89.116 E67.715
G1 X121.237 Y89.109
G1 X121.443 Y89.038
G1 X121.523 Y88.983 E67.71875
G1 X121.923 Y88.709 E67.74127
G1 X122.063 Y88.523 E67.75208
G1 X122.175 Y88.342 E67.76197
G1 X122.253 Y88.157 E67.77129
G1 X122.326 Y87.679 E67.79375
